X:10800
T:Millers Dance on the  Windmill
B:Walsh
M:3/8
L:1/8
N:
K:D
d3 DFA| d3 DFA| d3 def| ecA ace| ecA ace| ecA ace|ecA EA^G| AEC A,3::\
a3 Ace| a3 Ace| a3 efg |fda fda |fda fda|fda fda| fdf Adc| daf d3:|
